X: 2651
T: Banish Misfortune
R: jig
M: 6/8
K: Dmixolydian
|:e|fed cAG|AdB cAG|F2D DED|FEF GFG|
AGA cAG|AGA cde|fed cAG|Ad^c d2:|
|:e|f2d d^cd|f2a agf|e2c cBc|ecg gfe|
f2g agf|e2f gfe|fed cAG|Ad^c d2:|
|:e|f2g e2f|d2e c2d|ABA GAG|FEG FED|
c2c cAG|AGA ced|fed cAG|Ad^c d2:|

